icons/dairy.svg

<svg width="48" height="48" viewBox="0 0 48 48" fill="none" xmlns="http://www.w3.org/2000/svg">
<path fill-rule="evenodd" clip-rule="evenodd" d="M21.6752 6L18 21.6234V40.5217C18 41.4354 18.6793 42 19.3056 42L29.6944 42C30.3207 42 31 41.4354 31 40.5218V21.6234L27.3248 6.00004L21.6752 6ZM19.3056 7.33942C19.3056 7.33942 18.7752 7.38397 18.3154 7.10649C17.9634 6.89412 17.6528 6.49312 17.6528 5.73913C17.6528 4 18.4792 4 20.9583 4L28.0417 4.00004C30.5208 4.00004 31.3472 4.00004 31.3472 5.73917C31.3472 6.49316 31.0366 6.89416 30.6846 7.10653C30.2248 7.38401 29.6944 7.33946 29.6944 7.33946L33 21.3913V40.5218C33 42.4428 31.5201 44 29.6944 44L19.3056 44C17.4799 44 16 42.4427 16 40.5217V21.3913L19.3056 7.33942Z" fill="black"/>
<path fill-rule="evenodd" clip-rule="evenodd" d="M17.4062 23.8369C17.4062 23.8369 17.4066 23.8367 17 22.9231C16.5934 22.0095 16.5939 22.0092 16.5939 22.0092L16.5963 22.0082L16.6008 22.0062L16.615 22L16.6633 21.9793C16.704 21.9621 16.7616 21.9382 16.8345 21.9091C16.98 21.851 17.1871 21.7721 17.4417 21.6849C17.9485 21.5114 18.6561 21.301 19.4497 21.1597C20.9596 20.8909 23.1302 20.8101 24.6649 22.1761C25.6171 23.0237 27.1366 23.5042 28.5503 23.7559C29.2358 23.8779 29.8551 23.9392 30.3027 23.9699C30.5258 23.9852 30.7046 23.9927 30.8256 23.9964C30.8861 23.9983 30.932 23.9992 30.9616 23.9996L30.9937 24L31.0001 24C31.0001 24 31 24 31 25C31 26 30.9995 26 30.9995 26L30.9974 26L30.9931 26L30.9794 25.9999L30.9324 25.9994C30.8926 25.9988 30.836 25.9977 30.7642 25.9955C30.6209 25.9911 30.4169 25.9824 30.1661 25.9652C29.6657 25.931 28.9725 25.8625 28.1997 25.7249C26.6967 25.4573 24.7162 24.8993 23.3351 23.67C22.5365 22.9591 21.207 22.8783 19.8003 23.1288C19.1356 23.2471 18.5307 23.4261 18.0895 23.5771C17.8702 23.6522 17.6944 23.7193 17.5757 23.7667C17.5164 23.7903 17.4715 23.809 17.4427 23.8212L17.4119 23.8344L17.4062 23.8369Z" fill="black"/>
<path d="M19 5H30L29 7H20L19 5Z" fill="black"/>
</svg>

<svg
  xmlns="http://www.w3.org/2000/svg"
  width="24"
  height="24"
  viewBox="0 0 24 24"
  fill="none"
  stroke="currentColor"
  stroke-width="2"
  stroke-linecap="round"
  stroke-linejoin="round"
>
  <path
    fill-rule="evenodd"
    d="M21.675 6 18 21.623v18.899c0 .913.68 1.478 1.306 1.478h10.388c.627 0 1.306-.565 1.306-1.478V21.623L27.325 6zm-2.37 1.34s-.53.044-.99-.234c-.352-.212-.662-.613-.662-1.367C17.653 4 18.479 4 20.958 4h7.084c2.479 0 3.305 0 3.305 1.74 0 .753-.31 1.154-.662 1.367-.46.277-.99.232-.99.232L33 21.391v19.13C33 42.444 31.52 44 29.694 44H19.306C17.48 44 16 42.443 16 40.522v-19.13z"
    clip-rule="evenodd"
  />
  <path
    fill-rule="evenodd"
    d="M17.406 23.837 17 22.923c-.407-.913-.406-.914-.406-.914h.002l.005-.003.014-.006.048-.02.171-.07a13.733 13.733 0 0 1 2.615-.75c1.51-.27 3.681-.35 5.216 1.016.952.848 2.472 1.328 3.885 1.58a17 17 0 0 0 2.412.244H31v2h-.068l-.168-.005a18.595 18.595 0 0 1-2.564-.27c-1.503-.268-3.484-.826-4.865-2.055-.799-.71-2.128-.792-3.535-.541a11.7 11.7 0 0 0-2.357.692l-.031.013z"
    clip-rule="evenodd"
  />
  <path d="M19 5h11l-1 2h-9z" />
</svg>
